plasma/desktoptheme/Materia/icons/choqok_offline.svg

<svg xmlns="http://www.w3.org/2000/svg" width="32" height="32" version="1.1">
 <g id="22-22-choqok_offline" transform="translate(32,10)">
  <rect style="opacity:0.001" width="22" height="22" x="0" y="0"/>
  <path style="fill:#dfdfdf" d="M 11,3 10.238281,4 9.400391,3.5 8.833984,4.7265625 C 7.079166,5.0876625 5.8381164,5.9347906 4.8105469,7.275391 3.0132402,9.620291 3,13.667425 3,15.953125 3,18.238825 7.190476,19 11,19 c 3.809524,0 8,-0.761175 8,-3.046875 0,-2.2857 -0.01325,-6.332834 -1.810547,-8.677734 C 16.161883,5.9347906 14.920835,5.0876625 13.166016,4.7265625 L 12.599609,3.5 11.761719,4 Z m 3.5,7 A 1.5,1.5 0 0 1 16,11.5 1.5,1.5 0 0 1 14.5,13 1.5,1.5 0 0 1 13,11.5 1.5,1.5 0 0 1 14.5,10 Z m -7,1 A 1.5,1.5 0 0 1 9,12.5 1.5,1.5 0 0 1 8.912109,13 1.5,1.5 0 0 0 7.5,12 1.5,1.5 0 0 0 6.0878906,13 1.5,1.5 0 0 1 6,12.5 1.5,1.5 0 0 1 7.5,11 Z m 6.5,0 v 1 h 1 v -1 z m -3,2 c 0.07658,10e-4 0.15085,0.03466 0.205078,0.09766 l 1.701172,1.738278 C 13.088291,15.046036 12.991911,15.9999 12.734375,16 H 11 9.265625 C 9.008086,15.9999 8.911709,15.046036 9.09375,14.835938 l 1.701172,-1.738282 C 10.849149,13.034656 10.923415,13.0001 11,13 Z"/>
 </g>
 <g id="choqok_offline">
  <rect style="opacity:0.001" width="32" height="32" x="0" y="0"/>
  <g>
   <path style="opacity:0.2" d="M 16,2.5 14.666667,4.1 13,3.5 12.208333,5.0209 C 9.1374002,5.6528 6.9675199,7.137 5.1692733,9.4831 2.0239867,13.5866 2,20.6667 2,24.6667 2,28.6666 9.333333,30 16,30 c 6.666667,0 14,-1.3334 14,-5.3333 0,-4 -0.024,-11.0801 -3.169273,-15.1836 C 25.03248,7.1369 22.8626,5.6528 19.791667,5.0208 L 19,3.5 17.333333,4.1 Z"/>
   <path style="fill:#8e8e8e" d="M 16,1.5 14.666667,3.1 13,2.5 12.208333,4.0209 C 9.1374002,4.6528 6.9675199,6.137 5.1692733,8.4831 2.0239867,12.5866 2,19.6667 2,23.6667 2,27.6666 9.333333,29 16,29 c 6.666667,0 14,-1.3334 14,-5.3333 0,-4 -0.024,-11.0801 -3.169273,-15.1836 C 25.03248,6.1369 22.8626,4.6528 19.791667,4.0208 L 19,2.5 17.333333,3.1 Z"/>
   <path style="fill:#86572f" d="M 12.694481,23.0884 C 13.376456,24.2696 14.636057,24.998 16,25 c 1.363943,0 2.623544,-0.7304 3.305519,-1.9116 H 16 Z"/>
   <path style="opacity:0.2" d="m 16.000001,20 c -0.15317,10e-5 -0.301029,0.058 -0.409484,0.1621 l -3.402434,2.897 c -0.364082,0.35 -0.172602,1.3851 0.342477,1.3854 L 16.000001,25 l 3.46944,-0.5555 c 0.515073,-3e-4 0.70656,-1.0354 0.342477,-1.3854 l -3.402435,-2.897 C 16.301028,20.0578 16.15317,20.0001 16.000001,20 Z"/>
   <path style="fill:#ffc12e" d="m 16.000001,19 c -0.15317,10e-5 -0.301029,0.058 -0.409484,0.1621 l -3.402434,2.897 c -0.364082,0.35 -0.172602,1.3851 0.342477,1.3854 L 16.000001,24 l 3.46944,-0.5555 c 0.515073,-3e-4 0.70656,-1.0354 0.342477,-1.3854 l -3.402435,-2.897 C 16.301028,19.0578 16.15317,19.0001 16.000001,19 Z"/>
   <path style="opacity:0.2;fill:#ffffff" d="m 16,19 c -0.15317,10e-5 -0.301701,0.05801 -0.410156,0.162109 L 12.1875,22.058594 c -0.239509,0.230245 -0.233897,0.75236 -0.05859,1.085937 0.0194,-0.02891 0.03433,-0.06261 0.05859,-0.08594 l 3.402344,-2.896485 C 15.698299,20.058009 15.84683,20.0001 16,20 c 0.153169,10e-5 0.301701,0.05781 0.410156,0.162109 l 3.402344,2.896485 c 0.02427,0.02333 0.03919,0.05703 0.05859,0.08594 0.175303,-0.333577 0.180916,-0.855692 -0.05859,-1.085937 L 16.410156,19.162109 C 16.301701,19.057809 16.153169,19.0001 16,19 Z"/>
   <path style="opacity:0.1;fill:#ffffff" d="M 16,1.5 14.666016,3.0996094 13,2.5 12.208984,4.0214844 C 9.1380516,4.6533844 6.9681685,6.1363219 5.1699219,8.4824219 2.0246353,12.585922 2,19.666016 2,23.666016 c 0,0.03998 0.012214,0.07578 0.013672,0.115234 0.014556,-4.089473 0.210742,-10.455969 3.15625,-14.2988281 1.7982466,-2.3461 3.9681297,-3.8290375 7.039062,-4.4609375 L 13,3.5 14.666016,4.0996094 16,2.5 17.333984,4.0996094 19,3.5 19.791016,5.0214844 c 3.070933,0.632 5.240815,2.1147375 7.039062,4.4609375 2.945495,3.8428591 3.141693,10.2093551 3.15625,14.2988281 C 29.987786,23.7418 30,23.705997 30,23.666016 c 0,-4 -0.02465,-11.080094 -3.169922,-15.1835941 -1.798247,-2.3462 -3.968129,-3.8289375 -7.039062,-4.4609375 L 19,2.5 17.333984,3.0996094 Z"/>
   <circle style="opacity:0.2" cx="23" cy="17" r="3"/>
   <circle style="fill:#ffffff" cx="23" cy="16" r="3"/>
   <path style="opacity:0.2" d="m 9,15.000047 a 3,3 0 0 0 -3,3 A 3,3 0 0 0 6.1757812,19.002 3,3 0 0 1 9,17.000047 3,3 0 0 1 11.824219,18.998094 3,3 0 0 0 12,18.000047 a 3,3 0 0 0 -3,-3 z"/>
   <path style="fill:#ffffff" d="m 9,14.000047 a 3,3 0 0 0 -3,3 A 3,3 0 0 0 6.1757812,18.002 3,3 0 0 1 9,16.000047 3,3 0 0 1 11.824219,17.998094 3,3 0 0 0 12,17.000047 a 3,3 0 0 0 -3,-3 z"/>
   <circle style="fill:#3f3f3f" cx="23" cy="16" r="2"/>
  </g>
 </g>
</svg>

<?xml version="1.0" encoding="UTF-8"?>
<svg width="32" height="32" version="1.1" xmlns="http://www.w3.org/2000/svg">
 <g id="22-22-choqok_offline" transform="translate(32,10)">
  <rect width="22" height="22" opacity=".001"/>
  <path d="m11 3-0.76172 1-0.83789-0.5-0.56641 1.2266c-1.7548 0.3611-2.9959 1.2082-4.0234 2.5488-1.7973 2.3449-1.8105 6.392-1.8105 8.6777s4.1905 3.0469 8 3.0469 8-0.76118 8-3.0469-0.01325-6.3328-1.8105-8.6777c-1.0276-1.3406-2.2686-2.1877-4.0234-2.5488l-0.56641-1.2266-0.83789 0.5zm3.5 7a1.5 1.5 0 0 1 1.5 1.5 1.5 1.5 0 0 1-1.5 1.5 1.5 1.5 0 0 1-1.5-1.5 1.5 1.5 0 0 1 1.5-1.5zm-7 1a1.5 1.5 0 0 1 1.5 1.5 1.5 1.5 0 0 1-0.087891 0.5 1.5 1.5 0 0 0-1.4121-1 1.5 1.5 0 0 0-1.4121 1 1.5 1.5 0 0 1-0.087891-0.5 1.5 1.5 0 0 1 1.5-1.5zm6.5 0v1h1v-1zm-3 2c0.07658 1e-3 0.15085 0.03466 0.20508 0.09766l1.7012 1.7383c0.18204 0.2101 0.085661 1.164-0.17188 1.1641h-3.4688c-0.25754-1e-4 -0.35392-0.95396-0.17188-1.1641l1.7012-1.7383c0.054227-0.063 0.12849-0.097556 0.20508-0.097656z" fill="#dfdfdf"/>
 </g>
 <g id="choqok_offline">
  <rect width="32" height="32" opacity=".001"/>
  <path d="m16 2.5-1.3333 1.6-1.6667-0.6-0.79167 1.5209c-3.0709 0.6319-5.2408 2.1161-7.0391 4.4622-3.1453 4.1035-3.1693 11.184-3.1693 15.184 0 3.9999 7.3333 5.3333 14 5.3333s14-1.3334 14-5.3333c0-4-0.024-11.08-3.1693-15.184-1.7982-2.3462-3.9681-3.8303-7.0391-4.4623l-0.79167-1.5208-1.6667 0.6z" opacity=".2"/>
  <path d="m16 1.5-1.3333 1.6-1.6667-0.6-0.79167 1.5209c-3.0709 0.6319-5.2408 2.1161-7.0391 4.4622-3.1453 4.1035-3.1693 11.184-3.1693 15.184 0 3.9999 7.3333 5.3333 14 5.3333s14-1.3334 14-5.3333c0-4-0.024-11.08-3.1693-15.184-1.7982-2.3462-3.9681-3.8303-7.0391-4.4623l-0.79167-1.5208-1.6667 0.6z" fill="#8e8e8e"/>
  <path d="m12.694 23.088c0.68198 1.1812 1.9416 1.9096 3.3055 1.9116 1.3639 0 2.6235-0.7304 3.3055-1.9116h-3.3055z" fill="#86572f"/>
  <path d="m16 20c-0.15317 1e-4 -0.30103 0.058-0.40948 0.1621l-3.4024 2.897c-0.36408 0.35-0.1726 1.3851 0.34248 1.3854l3.4694 0.5555 3.4694-0.5555c0.51507-3e-4 0.70656-1.0354 0.34248-1.3854l-3.4024-2.897c-0.10846-0.1043-0.25631-0.162-0.40948-0.1621z" opacity=".2"/>
  <path d="m16 19c-0.15317 1e-4 -0.30103 0.058-0.40948 0.1621l-3.4024 2.897c-0.36408 0.35-0.1726 1.3851 0.34248 1.3854l3.4694 0.5555 3.4694-0.5555c0.51507-3e-4 0.70656-1.0354 0.34248-1.3854l-3.4024-2.897c-0.10846-0.1043-0.25631-0.162-0.40948-0.1621z" fill="#ffc12e"/>
  <path d="m16 19c-0.15317 1e-4 -0.3017 0.05801-0.41016 0.16211l-3.4023 2.8965c-0.23951 0.23024-0.2339 0.75236-0.05859 1.0859 0.0194-0.02891 0.03433-0.06261 0.05859-0.08594l3.4023-2.8965c0.10846-0.1041 0.25699-0.16201 0.41016-0.16211 0.15317 1e-4 0.3017 0.05781 0.41016 0.16211l3.4023 2.8965c0.02427 0.02333 0.03919 0.05703 0.05859 0.08594 0.1753-0.33358 0.18092-0.85569-0.05859-1.0859l-3.4023-2.8965c-0.10846-0.1043-0.25699-0.16201-0.41016-0.16211z" fill="#fff" opacity=".2"/>
  <path d="m16 1.5-1.334 1.5996-1.666-0.59961-0.79102 1.5215c-3.0709 0.6319-5.2408 2.1148-7.0391 4.4609-3.1453 4.1035-3.1699 11.184-3.1699 15.184 0 0.03998 0.012214 0.07578 0.013672 0.11523 0.014556-4.0895 0.21074-10.456 3.1562-14.299 1.7982-2.3461 3.9681-3.829 7.0391-4.4609l0.79102-1.5215 1.666 0.59961 1.334-1.5996 1.334 1.5996 1.666-0.59961 0.79102 1.5215c3.0709 0.632 5.2408 2.1147 7.0391 4.4609 2.9455 3.8429 3.1417 10.209 3.1562 14.299 0.001458-0.03945 0.013672-0.075253 0.013672-0.11523 0-4-0.02465-11.08-3.1699-15.184-1.7982-2.3462-3.9681-3.8289-7.0391-4.4609l-0.79102-1.5215-1.666 0.59961z" fill="#fff" opacity=".1"/>
  <circle cx="23" cy="17" r="3" opacity=".2"/>
  <circle cx="23" cy="16" r="3" fill="#fff"/>
  <path d="m9 15a3 3 0 0 0-3 3 3 3 0 0 0 0.17578 1.002 3 3 0 0 1 2.8242-2.002 3 3 0 0 1 2.8242 1.998 3 3 0 0 0 0.17578-0.99805 3 3 0 0 0-3-3z" opacity=".2"/>
  <path d="m9 14a3 3 0 0 0-3 3 3 3 0 0 0 0.17578 1.002 3 3 0 0 1 2.8242-2.002 3 3 0 0 1 2.8242 1.998 3 3 0 0 0 0.17578-0.99805 3 3 0 0 0-3-3z" fill="#fff"/>
  <circle cx="23" cy="16" r="2" fill="#3f3f3f"/>
 </g>
</svg>
